outputs/icons/hardware/headphones_round.svg

<svg xmlns="http://www.w3.org/2000/svg" width="1200" height="1200" fill="none"><g clip-path="url(#a)"><path fill="#000" d="M150 600v350c0 55 45 100 100 100h100c55 0 100-45 100-100V750c0-55-45-100-100-100H250v-50c0-193.5 156.5-350 350-350s350 156.5 350 350v50H850c-55 0-100 45-100 100v200c0 55 45 100 100 100h100c55 0 100-45 100-100V600c0-248.5-201.5-450-450-450S150 351.5 150 600"/></g><defs><clipPath id="a"><path fill="#fff" d="M0 0h1200v1200H0z"/></clipPath></defs></svg>

<svg width="1200" height="1200" viewBox="0 0 1200 1200" fill="none" xmlns="http://www.w3.org/2000/svg"><g clip-path="url(#clip0_238_1281)"><path d="M150 600V950C150 1005 195 1050 250 1050H350C405 1050 450 1005 450 950V750C450 695 405 650 350 650H250V600C250 406.5 406.5 250 600 250C793.5 250 950 406.5 950 600V650H850C795 650 750 695 750 750V950C750 1005 795 1050 850 1050H950C1005 1050 1050 1005 1050 950V600C1050 351.5 848.5 150 600 150C351.5 150 150 351.5 150 600Z" fill="black"/></g><defs><clipPath id="clip0_238_1281"><path width="24" fill="white" d="M0 0H1200V1200H0V0z"/></clipPath></defs></svg>
